EvoPop/48x48/categories/applications-system.svg

<?xml version="1.0" encoding="UTF-8" standalone="no"?>
<svg
   xmlns:dc="http://purl.org/dc/elements/1.1/"
   xmlns:cc="http://creativecommons.org/ns#"
   xmlns:rdf="http://www.w3.org/1999/02/22-rdf-syntax-ns#"
   xmlns:svg="http://www.w3.org/2000/svg"
   xmlns="http://www.w3.org/2000/svg"
   xmlns:xlink="http://www.w3.org/1999/xlink"
   xmlns:sodipodi="http://sodipodi.sourceforge.net/DTD/sodipodi-0.dtd"
   xmlns:inkscape="http://www.inkscape.org/namespaces/inkscape"
   width="48"
   height="48"
   viewBox="0 0 48 48"
   id="svg2"
   version="1.1"
   inkscape:version="0.91 r13725"
   sodipodi:docname="applications-system.svg"
   inkscape:export-filename="/home/peter/Documenten/test.png"
   inkscape:export-xdpi="360"
   inkscape:export-ydpi="360">
  <metadata
     id="metadata12">
    <rdf:RDF>
      <cc:Work
         rdf:about="">
        <dc:format>image/svg+xml</dc:format>
        <dc:type
           rdf:resource="http://purl.org/dc/dcmitype/StillImage" />
        <dc:title />
      </cc:Work>
    </rdf:RDF>
  </metadata>
  <defs
     id="defs10">
    <linearGradient
       inkscape:collect="always"
       xlink:href="#linearGradient4165"
       id="linearGradient4171-1"
       x1="7"
       y1="1011.3622"
       x2="41.000019"
       y2="1045.3622"
       gradientUnits="userSpaceOnUse"
       gradientTransform="matrix(0.95651421,0,0,0.95652174,2.0287338,-960.03014)" />
    <linearGradient
       inkscape:collect="always"
       id="linearGradient4165">
      <stop
         style="stop-color:#ffffff;stop-opacity:0.15000001"
         offset="0"
         id="stop4167" />
      <stop
         style="stop-color:#177ed5;stop-opacity:0;"
         offset="1"
         id="stop4169" />
    </linearGradient>
  </defs>
  <sodipodi:namedview
     pagecolor="#6d6d6d"
     bordercolor="#666666"
     borderopacity="1"
     objecttolerance="10"
     gridtolerance="10"
     guidetolerance="10"
     inkscape:pageopacity="0"
     inkscape:pageshadow="2"
     inkscape:window-width="959"
     inkscape:window-height="688"
     id="namedview8"
     showgrid="true"
     inkscape:zoom="2.4571961"
     inkscape:cx="-18.547559"
     inkscape:cy="-13.880465"
     inkscape:window-x="541"
     inkscape:window-y="19"
     inkscape:window-maximized="0"
     inkscape:current-layer="svg2">
    <inkscape:grid
       type="xygrid"
       id="grid4145" />
  </sodipodi:namedview>
  <path
     style="fill:#ffffff;fill-opacity:0.2;stroke:none;stroke-width:2;stroke-linecap:round;stroke-linejoin:round;stroke-miterlimit:4;stroke-dasharray:none;stroke-opacity:1"
     d="m 23.999942,14.00015 a 9.9999446,9.999921 0 0 0 -9.999944,9.999924 9.9999446,9.999921 0 0 0 0.0045,0.1332 9.9999446,9.999921 0 0 1 9.995494,-9.905826 9.9999446,9.999921 0 0 1 9.995506,9.866726 9.9999446,9.999921 0 0 0 0.0044,-0.0941 9.9999446,9.999921 0 0 0 -9.999946,-9.999926 z"
     id="circle4149"
     inkscape:connector-curvature="0" />
  <path
     inkscape:connector-curvature="0"
     id="path4155"
     d="m 23.999942,34 a 9.9999446,9.999921 0 0 1 -9.999944,-9.999926 9.9999446,9.999921 0 0 1 0.0045,-0.1332 9.9999446,9.999921 0 0 0 9.995504,9.905876 9.9999446,9.999921 0 0 0 9.995506,-9.866776 9.9999446,9.999921 0 0 1 0.0044,0.0941 A 9.9999446,9.999921 0 0 1 23.999912,34 Z"
     style="fill:#000000;fill-opacity:0.2;stroke:none;stroke-width:2;stroke-linecap:round;stroke-linejoin:round;stroke-miterlimit:4;stroke-dasharray:none;stroke-opacity:1" />
  <path
     style="fill:#78909c;fill-opacity:1"
     d="M 19.472656 2 C 18.907357 2 18.443964 2.4068241 18.353516 2.9238281 L 17.576172 8.2714844 A 17.000472 17 0 0 0 13.330078 10.783203 L 8.0527344 8.7109375 C 7.5439649 8.5239055 6.9564782 8.7105938 6.6738281 9.1835938 L 2.1523438 16.806641 C 1.8696937 17.279641 1.9942042 17.873846 2.4238281 18.214844 L 7.1601562 21.830078 A 17.000472 17 0 0 0 7 24 A 17.000472 17 0 0 0 7.15625 26.171875 L 2.4238281 29.785156 C 1.9942006 30.115156 1.8696909 30.709361 2.1523438 31.193359 L 6.6738281 38.816406 C 6.9564778 39.289406 7.5439649 39.487065 8.0527344 39.289062 L 13.324219 37.21875 A 17.000472 17 0 0 0 17.576172 39.726562 L 18.353516 45.076172 C 18.443964 45.593172 18.907357 46 19.472656 46 L 28.517578 46 C 29.082874 46 29.546271 45.593172 29.636719 45.076172 L 30.414062 39.732422 A 17.000472 17 0 0 0 34.666016 37.21875 L 39.935547 39.289062 C 40.444319 39.476042 41.031803 39.289406 41.314453 38.816406 L 45.837891 31.193359 C 46.120541 30.720359 45.995998 30.126156 45.566406 29.785156 L 40.837891 26.177734 A 17.000472 17 0 0 0 41 24 A 17.000472 17 0 0 0 40.841797 21.818359 L 45.576172 18.214844 C 46.0058 17.884846 46.130306 17.290641 45.847656 16.806641 L 41.326172 9.1835938 C 41.043522 8.7105938 40.456038 8.5129375 39.947266 8.7109375 L 34.675781 10.78125 A 17.000472 17 0 0 0 30.423828 8.2734375 L 29.646484 2.9238281 C 29.544738 2.4068241 29.082876 2 28.517578 2 L 19.472656 2 z "
     id="path6" />
  <path
     style="fill:url(#linearGradient4171-1);fill-opacity:1;stroke:none;stroke-width:2;stroke-linecap:round;stroke-linejoin:round;stroke-miterlimit:4;stroke-dasharray:none;stroke-opacity:1"
     d="M 19.472656 2 C 18.907357 2 18.443964 2.4068241 18.353516 2.9238281 L 17.576172 8.2714844 A 17.000472 17 0 0 0 13.330078 10.783203 L 8.0527344 8.7109375 C 7.5439649 8.5239055 6.9564782 8.7105938 6.6738281 9.1835938 L 2.1523438 16.806641 C 1.8696936 17.279641 1.9942042 17.873846 2.4238281 18.214844 L 7.1601562 21.830078 A 17.000472 17 0 0 0 7 24 A 17.000472 17 0 0 0 7.15625 26.171875 L 2.4238281 29.785156 C 1.9942006 30.115156 1.8696909 30.709361 2.1523438 31.193359 L 6.6738281 38.816406 C 6.9564778 39.289406 7.5439649 39.487065 8.0527344 39.289062 L 13.324219 37.21875 A 17.000472 17 0 0 0 17.576172 39.726562 L 18.353516 45.076172 C 18.443964 45.593172 18.907357 46 19.472656 46 L 28.517578 46 C 29.082876 46 29.546271 45.593172 29.636719 45.076172 L 30.414062 39.732422 A 17.000472 17 0 0 0 34.666016 37.21875 L 39.935547 39.289062 C 40.444319 39.476042 41.031803 39.289406 41.314453 38.816406 L 45.837891 31.193359 C 46.120541 30.720359 45.995998 30.126156 45.566406 29.785156 L 40.837891 26.177734 A 17.000472 17 0 0 0 41 24 A 17.000472 17 0 0 0 40.902344 22.302734 A 17.000472 17 0 0 0 40.841797 21.818359 L 45.576172 18.214844 C 46.0058 17.884846 46.130306 17.290641 45.847656 16.806641 L 41.326172 9.1835938 C 41.043522 8.7105937 40.456038 8.5129375 39.947266 8.7109375 L 34.675781 10.78125 A 17.000472 17 0 0 0 30.423828 8.2734375 L 29.646484 2.9238281 C 29.544738 2.4068241 29.082876 2 28.517578 2 L 19.472656 2 z "
     id="circle4163-3" />
  <path
     style="fill:#000000;fill-opacity:0.19607843"
     d="m 2.1347656,16.853516 c -0.2489048,0.465111 -0.1269885,1.031103 0.2890625,1.361328 l 4.6542969,3.552734 a 17.000472,17 0 0 1 0.082031,-0.9375 L 2.4238281,17.214844 C 2.2970506,17.114219 2.2057847,16.988617 2.1347656,16.853516 Z m 43.7324224,0.0039 c -0.0711,0.13479 -0.163433,0.259425 -0.291016,0.357422 l -4.734375,3.603515 a 17.000472,17 0 0 1 0.08594,0.933594 l 4.648438,-3.537109 c 0.41508,-0.318824 0.537567,-0.883015 0.291016,-1.357422 z M 7.0234375,23.396484 A 17.000472,17 0 0 0 7,24 17.000472,17 0 0 0 7.0703125,25.236328 L 7.15625,25.171875 A 17.000472,17 0 0 1 7.0234375,23.396484 Z m 33.9531245,0.210938 a 17.000472,17 0 0 1 -0.138671,1.570312 l 0.08398,0.0625 A 17.000472,17 0 0 0 41,24 17.000472,17 0 0 0 40.976562,23.607422 Z M 2.1328125,30.142578 c -0.1683181,0.319109 -0.1791843,0.710512 0.019531,1.050781 l 4.5214843,7.623047 c 0.2826497,0.473 0.8701368,0.670659 1.3789063,0.472656 L 13.324219,37.21875 a 17.000472,17 0 0 0 4.251953,2.507812 l 0.777344,5.34961 C 18.443964,45.593172 18.907357,46 19.472656,46 l 9.044922,0 c 0.565296,0 1.028693,-0.406828 1.119141,-0.923828 l 0.777343,-5.34375 a 17.000472,17 0 0 0 4.251954,-2.513672 l 5.269531,2.070312 c 0.508772,0.18698 1.096256,3.44e-4 1.378906,-0.472656 l 4.523438,-7.623047 c 0.199243,-0.333422 0.187224,-0.724144 0.01758,-1.046875 -0.0081,0.01517 -0.0086,0.03194 -0.01758,0.04687 l -4.523438,7.623047 c -0.28265,0.473 -0.870134,0.659636 -1.378906,0.472656 L 34.666016,36.21875 a 17.000472,17 0 0 1 -4.251954,2.513672 l -0.777343,5.34375 C 29.546271,44.593172 29.082874,45 28.517578,45 l -9.044922,0 c -0.565299,0 -1.028692,-0.406828 -1.11914,-0.923828 l -0.777344,-5.34961 A 17.000472,17 0 0 1 13.324219,36.21875 L 8.0527344,38.289062 C 7.5439649,38.487065 6.9564778,38.289406 6.6738281,37.816406 L 2.1523438,30.193359 c -0.00957,-0.01639 -0.01089,-0.03415 -0.019531,-0.05078 z"
     id="path4151"
     inkscape:connector-curvature="0" />
  <path
     style="fill:#ffffff;fill-opacity:0.2"
     d="m 19.472656,2 c -0.565299,0 -1.028692,0.4068241 -1.11914,0.9238281 L 17.576172,8.2714844 A 17.000472,17 0 0 0 13.330078,10.783203 L 8.0527344,8.7109375 C 7.5439649,8.5239055 6.9564782,8.7105937 6.6738281,9.1835938 L 2.1523438,16.806641 c -0.1992431,0.333422 -0.1872285,0.724143 -0.017578,1.046875 0.00812,-0.01517 0.00865,-0.03193 0.017578,-0.04687 L 6.6738281,10.183594 C 6.9564782,9.7105936 7.5439649,9.5239055 8.0527344,9.7109375 L 13.330078,11.783203 A 17.000472,17 0 0 1 17.576172,9.2714844 L 18.353516,3.9238281 C 18.443964,3.4068241 18.907357,3 19.472656,3 l 9.044922,0 c 0.565298,0 1.02716,0.4068241 1.128906,0.9238281 l 0.777344,5.3496094 a 17.000472,17 0 0 1 4.251953,2.5078125 l 5.271485,-2.0703125 c 0.508772,-0.198 1.096256,-3.439e-4 1.378906,0.4726565 l 4.521484,7.623047 c 0.0096,0.01639 0.01089,0.03415 0.01953,0.05078 0.168317,-0.319109 0.179182,-0.710511 -0.01953,-1.050781 L 41.326172,9.1835938 C 41.043522,8.7105937 40.456038,8.5129375 39.947266,8.7109375 L 34.675781,10.78125 A 17.000472,17 0 0 0 30.423828,8.2734375 L 29.646484,2.9238281 C 29.544738,2.4068241 29.082876,2 28.517578,2 l -9.044922,0 z m 21.455078,20.751953 -0.08594,0.06641 A 17.000472,17 0 0 1 40.976562,24.607422 17.000472,17 0 0 0 41,24 17.000472,17 0 0 0 40.927734,22.751953 Z M 7.078125,22.767578 A 17.000472,17 0 0 0 7,24 17.000472,17 0 0 0 7.023437,24.396484 17.000472,17 0 0 1 7.1601557,22.830078 l -0.082031,-0.0625 z m -0.00781,3.46875 -4.6464844,3.548828 C 2.0087509,30.103982 1.8862612,30.668173 2.132815,31.142578 2.203912,31.007788 2.2962478,30.883154 2.4238306,30.785156 L 7.15625,27.171875 A 17.000472,17 0 0 1 7.070313,26.236328 Z m 33.851562,0.0039 a 17.000472,17 0 0 1 -0.08398,0.9375 l 4.728515,3.607422 c 0.126768,0.100626 0.218044,0.226227 0.289063,0.361328 0.248903,-0.465111 0.126957,-1.031101 -0.289063,-1.361328 l -4.644531,-3.544922 z"
     id="path4146"
     inkscape:connector-curvature="0" />
  <g
     id="g4155"
     style="fill:#000000;fill-opacity:0.2"
     transform="translate(1,1)">
    <rect
       style="opacity:0.86100003;fill:#000000;fill-opacity:0.2;stroke:none;stroke-width:2;stroke-linecap:round;stroke-linejoin:round;stroke-miterlimit:4;stroke-dasharray:none;stroke-opacity:1"
       id="rect4151"
       width="4"
       height="4"
       x="22"
       y="16" />
    <rect
       y="22"
       x="22"
       height="10"
       width="4"
       id="rect4153"
       style="opacity:0.86100003;fill:#000000;fill-opacity:0.2;stroke:none;stroke-width:2;stroke-linecap:round;stroke-linejoin:round;stroke-miterlimit:4;stroke-dasharray:none;stroke-opacity:1" />
  </g>
  <rect
     style="opacity:0.86100003;fill:#f5f5f5;fill-opacity:1;stroke:none;stroke-width:2;stroke-linecap:round;stroke-linejoin:round;stroke-miterlimit:4;stroke-dasharray:none;stroke-opacity:1"
     id="rect4147"
     width="4"
     height="4"
     x="22"
     y="16" />
  <rect
     y="22"
     x="22"
     height="10"
     width="4"
     id="rect4149"
     style="opacity:0.86100003;fill:#f5f5f5;fill-opacity:1;stroke:none;stroke-width:2;stroke-linecap:round;stroke-linejoin:round;stroke-miterlimit:4;stroke-dasharray:none;stroke-opacity:1" />
</svg>

<?xml version="1.0" encoding="UTF-8" standalone="no"?>
<svg
   xmlns:dc="http://purl.org/dc/elements/1.1/"
   xmlns:cc="http://creativecommons.org/ns#"
   xmlns:rdf="http://www.w3.org/1999/02/22-rdf-syntax-ns#"
   xmlns:svg="http://www.w3.org/2000/svg"
   xmlns="http://www.w3.org/2000/svg"
   xmlns:xlink="http://www.w3.org/1999/xlink"
   xmlns:sodipodi="http://sodipodi.sourceforge.net/DTD/sodipodi-0.dtd"
   xmlns:inkscape="http://www.inkscape.org/namespaces/inkscape"
   width="48"
   height="48"
   viewBox="0 0 48 48"
   id="svg2"
   version="1.1"
   inkscape:version="0.91 r13725"
   sodipodi:docname="applications-system.svg">
  <metadata
     id="metadata12">
    <rdf:RDF>
      <cc:Work
         rdf:about="">
        <dc:format>image/svg+xml</dc:format>
        <dc:type
           rdf:resource="http://purl.org/dc/dcmitype/StillImage" />
        <dc:title />
      </cc:Work>
    </rdf:RDF>
  </metadata>
  <defs
     id="defs10">
    <linearGradient
       inkscape:collect="always"
       xlink:href="#linearGradient4165"
       id="linearGradient4171-1"
       x1="7"
       y1="1011.3622"
       x2="41.000019"
       y2="1045.3622"
       gradientUnits="userSpaceOnUse"
       gradientTransform="matrix(0.95651421,0,0,0.95652174,2.0287338,-960.03014)" />
    <linearGradient
       inkscape:collect="always"
       id="linearGradient4165">
      <stop
         style="stop-color:#ffffff;stop-opacity:0.15000001"
         offset="0"
         id="stop4167" />
      <stop
         style="stop-color:#177ed5;stop-opacity:0;"
         offset="1"
         id="stop4169" />
    </linearGradient>
  </defs>
  <sodipodi:namedview
     pagecolor="#6d6d6d"
     bordercolor="#666666"
     borderopacity="1"
     objecttolerance="10"
     gridtolerance="10"
     guidetolerance="10"
     inkscape:pageopacity="0"
     inkscape:pageshadow="2"
     inkscape:window-width="959"
     inkscape:window-height="688"
     id="namedview8"
     showgrid="false"
     inkscape:zoom="1.7375"
     inkscape:cx="71.734498"
     inkscape:cy="-61.671379"
     inkscape:window-x="541"
     inkscape:window-y="19"
     inkscape:window-maximized="0"
     inkscape:current-layer="svg2">
    <inkscape:grid
       type="xygrid"
       id="grid4145" />
  </sodipodi:namedview>
  <path
     style="fill:#ffffff;fill-opacity:0.2;stroke:none;stroke-width:2;stroke-linecap:round;stroke-linejoin:round;stroke-miterlimit:4;stroke-dasharray:none;stroke-opacity:1"
     d="m 23.999942,14.00015 a 9.9999446,9.999921 0 0 0 -9.999944,9.999924 9.9999446,9.999921 0 0 0 0.0045,0.1332 9.9999446,9.999921 0 0 1 9.995494,-9.905826 9.9999446,9.999921 0 0 1 9.995506,9.866726 9.9999446,9.999921 0 0 0 0.0044,-0.0941 9.9999446,9.999921 0 0 0 -9.999946,-9.999926 z"
     id="circle4149"
     inkscape:connector-curvature="0" />
  <path
     inkscape:connector-curvature="0"
     id="path4155"
     d="m 23.999942,34 a 9.9999446,9.999921 0 0 1 -9.999944,-9.999926 9.9999446,9.999921 0 0 1 0.0045,-0.1332 9.9999446,9.999921 0 0 0 9.995504,9.905876 9.9999446,9.999921 0 0 0 9.995506,-9.866776 9.9999446,9.999921 0 0 1 0.0044,0.0941 A 9.9999446,9.999921 0 0 1 23.999912,34 Z"
     style="fill:#000000;fill-opacity:0.2;stroke:none;stroke-width:2;stroke-linecap:round;stroke-linejoin:round;stroke-miterlimit:4;stroke-dasharray:none;stroke-opacity:1" />
  <path
     style="fill:#78909c;fill-opacity:1"
     d="M 19.472526,2 C 18.907227,2 18.443805,2.406824 18.353357,2.923828 L 17.57599,8.271484 a 17.000472,17 0 0 0 -4.246211,2.511718 L 8.0522884,8.710938 C 7.5435189,8.523906 6.955994,8.710594 6.6733439,9.183594 L 2.151734,16.80664 c -0.28265,0.473 -0.158132,1.067206 0.2714919,1.408204 l 4.7364595,3.615234 A 17.000472,17 0 0 0 6.9995248,24 17.000472,17 0 0 0 7.1557792,26.171874 l -4.7325533,3.613282 c -0.4296275,0.33 -0.5541447,0.924204 -0.2714919,1.408202 l 4.5216099,7.623048 c 0.2826497,0.473 0.870175,0.670658 1.3789445,0.472656 L 13.323919,37.21875 a 17.000472,17 0 0 0 4.252071,2.507812 l 0.777367,5.34961 C 18.443805,45.593172 18.907227,46 19.472526,46 l 9.045175,0 c 0.565296,0 1.028723,-0.406828 1.119171,-0.923828 l 0.777364,-5.34375 a 17.000472,17 0 0 0 4.252073,-2.513672 l 5.269677,2.070312 c 0.508772,0.18698 1.096294,3.44e-4 1.378944,-0.472656 l 4.523563,-7.623048 c 0.28265,-0.473 0.1581,-1.067202 -0.271492,-1.408202 L 40.838354,26.177734 A 17.000472,17 0 0 0 41.000468,24 a 17.000472,17 0 0 0 -0.1582,-2.181642 l 4.734507,-3.603514 c 0.429628,-0.329998 0.554142,-0.924204 0.271492,-1.408204 L 41.32665,9.183594 C 41.044,8.710594 40.456476,8.512938 39.947704,8.710938 L 34.676073,10.78125 A 17.000472,17 0 0 0 30.424002,8.273438 L 29.646638,2.923828 C 29.544892,2.406824 29.082999,2 28.517701,2 l -9.045175,0 z m 4.527472,14 a 8.000222,8 0 0 1 8.00022,8 8.000222,8 0 0 1 -8.00022,8 8.000222,8 0 0 1 -8.000224,-8 8.000222,8 0 0 1 0.03906,-0.798828 A 8.000222,8 0 0 1 23.999998,16 Z"
     id="path6"
     inkscape:connector-curvature="0" />
  <path
     style="fill:url(#linearGradient4171-1);fill-opacity:1;stroke:none;stroke-width:2;stroke-linecap:round;stroke-linejoin:round;stroke-miterlimit:4;stroke-dasharray:none;stroke-opacity:1"
     d="m 19.472652,2 c -0.565299,0 -1.028691,0.406824 -1.119139,0.923828 l -0.777344,5.347656 a 17.000472,17 0 0 0 -4.246093,2.511718 L 8.0527332,8.710938 C 7.5439639,8.523898 6.9564774,8.710594 6.6738273,9.183594 L 2.1523438,16.80664 c -0.28265,0.473 -0.15814,1.067206 0.2714843,1.408204 l 4.7363271,3.615234 A 17.000472,17 0 0 0 6.999999,24 a 17.000472,17 0 0 0 0.15625,2.171874 l -4.7324209,3.613282 c -0.4296275,0.33 -0.5541371,0.924204 -0.2714843,1.408202 l 4.5214835,7.623048 c 0.2826497,0.473 0.8701366,0.670658 1.3789059,0.472656 L 13.324217,37.21875 a 17.000472,17 0 0 0 4.251952,2.507812 l 0.777344,5.34961 C 18.443961,45.593172 18.907353,46 19.472652,46 l 9.044921,0 c 0.565298,0 1.028693,-0.406828 1.119141,-0.923828 l 0.777342,-5.34375 a 17.000472,17 0 0 0 4.251953,-2.513672 l 5.269531,2.070312 c 0.508772,0.18698 1.096256,3.44e-4 1.378906,-0.472656 l 4.523437,-7.623048 c 0.28265,-0.473 0.15812,-1.067202 -0.271486,-1.408202 L 40.837884,26.177734 A 17.000472,17 0 0 0 40.999992,24 a 17.000472,17 0 0 0 -0.1582,-2.181642 l 4.734373,-3.603514 c 0.429628,-0.329998 0.554134,-0.924204 0.271484,-1.408204 L 41.326164,9.183594 C 41.043514,8.710594 40.45603,8.512938 39.947258,8.710938 L 34.675775,10.78125 A 17.000472,17 0 0 0 30.423822,8.273438 L 29.646478,2.923828 C 29.544732,2.406824 29.082871,2 28.517573,2 l -9.044921,0 z m 4.527344,14 a 8.000222,8 0 0 1 7.999998,8 8.000222,8 0 0 1 -7.999998,8 8.000222,8 0 0 1 -7.999999,-8 8.000222,8 0 0 1 0.03906,-0.798828 A 8.000222,8 0 0 1 23.999996,16 Z"
     id="circle4163-3"
     inkscape:connector-curvature="0" />
  <path
     style="fill:#000000;fill-opacity:0.19607843"
     d="M 2.1347656 16.853516 C 1.8858608 17.318627 2.0077771 17.884619 2.4238281 18.214844 L 7.078125 21.767578 A 17.000472 17 0 0 1 7.1601562 20.830078 L 2.4238281 17.214844 C 2.2970506 17.114219 2.2057847 16.988617 2.1347656 16.853516 z M 45.867188 16.857422 C 45.796087 16.992212 45.703755 17.116847 45.576172 17.214844 L 40.841797 20.818359 A 17.000472 17 0 0 1 40.927734 21.751953 L 45.576172 18.214844 C 45.991252 17.89602 46.113739 17.331829 45.867188 16.857422 z M 7.0234375 23.396484 A 17.000472 17 0 0 0 7 24 A 17.000472 17 0 0 0 7.0703125 25.236328 L 7.15625 25.171875 A 17.000472 17 0 0 1 7.0234375 23.396484 z M 40.976562 23.607422 A 17.000472 17 0 0 1 40.837891 25.177734 L 40.921875 25.240234 A 17.000472 17 0 0 0 41 24 A 17.000472 17 0 0 0 40.976562 23.607422 z M 2.1328125 30.142578 C 1.9644944 30.461687 1.9536282 30.85309 2.1523438 31.193359 L 6.6738281 38.816406 C 6.9564778 39.289406 7.5439649 39.487065 8.0527344 39.289062 L 13.324219 37.21875 A 17.000472 17 0 0 0 17.576172 39.726562 L 18.353516 45.076172 C 18.443964 45.593172 18.907357 46 19.472656 46 L 28.517578 46 C 29.082874 46 29.546271 45.593172 29.636719 45.076172 L 30.414062 39.732422 A 17.000472 17 0 0 0 34.666016 37.21875 L 39.935547 39.289062 C 40.444319 39.476042 41.031803 39.289406 41.314453 38.816406 L 45.837891 31.193359 C 46.037134 30.859937 46.025115 30.469215 45.855469 30.146484 C 45.847369 30.161654 45.846871 30.178419 45.837891 30.193359 L 41.314453 37.816406 C 41.031803 38.289406 40.444319 38.476042 39.935547 38.289062 L 34.666016 36.21875 A 17.000472 17 0 0 1 30.414062 38.732422 L 29.636719 44.076172 C 29.546271 44.593172 29.082874 45 28.517578 45 L 19.472656 45 C 18.907357 45 18.443964 44.593172 18.353516 44.076172 L 17.576172 38.726562 A 17.000472 17 0 0 1 13.324219 36.21875 L 8.0527344 38.289062 C 7.5439649 38.487065 6.9564778 38.289406 6.6738281 37.816406 L 2.1523438 30.193359 C 2.1427737 30.176969 2.1414535 30.159208 2.1328125 30.142578 z "
     id="path4151" />
  <path
     style="fill:#ffffff;fill-opacity:0.2"
     d="M 19.472656 2 C 18.907357 2 18.443964 2.4068241 18.353516 2.9238281 L 17.576172 8.2714844 A 17.000472 17 0 0 0 13.330078 10.783203 L 8.0527344 8.7109375 C 7.5439649 8.5239055 6.9564782 8.7105937 6.6738281 9.1835938 L 2.1523438 16.806641 C 1.9531007 17.140063 1.9651153 17.530784 2.1347656 17.853516 C 2.1428857 17.838342 2.1434141 17.821584 2.1523438 17.806641 L 6.6738281 10.183594 C 6.9564782 9.7105936 7.5439649 9.5239055 8.0527344 9.7109375 L 13.330078 11.783203 A 17.000472 17 0 0 1 17.576172 9.2714844 L 18.353516 3.9238281 C 18.443964 3.4068241 18.907357 3 19.472656 3 L 28.517578 3 C 29.082876 3 29.544738 3.4068241 29.646484 3.9238281 L 30.423828 9.2734375 A 17.000472 17 0 0 1 34.675781 11.78125 L 39.947266 9.7109375 C 40.456038 9.5129375 41.043522 9.7105936 41.326172 10.183594 L 45.847656 17.806641 C 45.857227 17.82303 45.858545 17.840795 45.867188 17.857422 C 46.035505 17.538313 46.04637 17.146911 45.847656 16.806641 L 41.326172 9.1835938 C 41.043522 8.7105937 40.456038 8.5129375 39.947266 8.7109375 L 34.675781 10.78125 A 17.000472 17 0 0 0 30.423828 8.2734375 L 29.646484 2.9238281 C 29.544738 2.4068241 29.082876 2 28.517578 2 L 19.472656 2 z M 40.927734 22.751953 L 40.841797 22.818359 A 17.000472 17 0 0 1 40.976562 24.607422 A 17.000472 17 0 0 0 41 24 A 17.000472 17 0 0 0 40.927734 22.751953 z M 7.078125 22.767578 A 17.000472 17 0 0 0 7 24 A 17.000472 17 0 0 0 7.0234375 24.396484 A 17.000472 17 0 0 1 7.1601562 22.830078 L 7.078125 22.767578 z M 7.0703125 26.236328 L 2.4238281 29.785156 C 2.0087484 30.103982 1.8862587 30.668173 2.1328125 31.142578 C 2.2039096 31.007788 2.2962453 30.883154 2.4238281 30.785156 L 7.15625 27.171875 A 17.000472 17 0 0 1 7.0703125 26.236328 z M 40.921875 26.240234 A 17.000472 17 0 0 1 40.837891 27.177734 L 45.566406 30.785156 C 45.693174 30.885782 45.78445 31.011383 45.855469 31.146484 C 46.104372 30.681373 45.982426 30.115383 45.566406 29.785156 L 40.921875 26.240234 z "
     id="path4146" />
  <path
     style="fill:#ffffff;fill-opacity:0.35686275;stroke:none"
     d="M 24 10 A 14 14 0 0 0 10 24 A 14 14 0 0 0 24 38 A 14 14 0 0 0 38 24 A 14 14 0 0 0 24 10 z M 24 13 A 11 11 0 0 1 35 24 A 11 11 0 0 1 24 35 A 11 11 0 0 1 13 24 A 11 11 0 0 1 24 13 z "
     id="circle4151" />
</svg>
